local/templates/.default/frontend/main/images/icons/search-grey.svg

<svg width="17" height="17" viewBox="0 0 17 17" fill="none" xmlns="http://www.w3.org/2000/svg">
<path opacity="0.5" d="M16.7918 15.7927L12.7049 11.7057C13.718 10.4706 14.3286 8.88857 14.3286 7.16429C14.3286 3.20918 11.1194 0 7.16429 0C3.20571 0 0 3.20918 0 7.16429C0 11.1194 3.20571 14.3286 7.16429 14.3286C8.88857 14.3286 10.4671 13.7214 11.7022 12.7084L15.7892 16.7918C16.0667 17.0694 16.5143 17.0694 16.7918 16.7918C17.0694 16.5178 17.0694 16.0667 16.7918 15.7927ZM7.16429 12.9027C3.99673 12.9027 1.42245 10.3284 1.42245 7.16429C1.42245 4.0002 3.99673 1.42245 7.16429 1.42245C10.3284 1.42245 12.9061 4.0002 12.9061 7.16429C12.9061 10.3284 10.3284 12.9027 7.16429 12.9027Z" fill="#171B1F"/>
</svg>

<svg width="17" height="17" fill="none" xmlns="http://www.w3.org/2000/svg"><path opacity=".5" d="M16.792 15.793l-4.087-4.087A7.166 7.166 0 0 0 7.165 0a7.164 7.164 0 1 0 0 14.329 7.127 7.127 0 0 0 4.537-1.62l4.087 4.083a.708.708 0 1 0 1.003-1zm-9.628-2.89a5.746 5.746 0 0 1-5.742-5.739 5.749 5.749 0 0 1 5.742-5.742 5.75 5.75 0 0 1 5.742 5.742 5.748 5.748 0 0 1-5.742 5.739z" fill="#171B1F"/></svg>
